X: 168
T: Orange and Blue
T: Jig, D
L: 1/16
M: 6/8
K: D
f4d2 d2c2d2| A4d2 F4d2| f4d2 f2a2f2| d6 d2e2f2| g4e2 e2d2e2| c4e2 A4e2| c4A2 c2e2c2| A6 A2a2g2| 
f4d2 d2c2d2| A4d2 F4d2| f4d2 f2a2f2| d6 g6| b2g2b2 a2f2a2| g2e2g2 f2d2f2| e2c2A2 A2B2c2| d6 d4g2|| 
f4a2 a2^g2a2| f4a2 a2^g2a2| f4d2 f2a2f2| d6 d2e2f2| g4b2 b2a2b2| g4b2 b2a2b2| g4e2 g2b2g2| e6 e2a2g2| 
f4a2 a2^g2a2| f4a2 a2^g2a2| f4d2 f2a2f2| d6 g6| b2g2b2 a2f2a2| g2e2g2 f2d2f2| e2c2A2 A2B2c2| d6 d2a2g2|| 
D: Buddy MacMaster, Glencoe Hall, BM-91
D: Donald Angus Beaton, A Musical Legacy, DAB4-1985
